app/img/scene/gandalf.svg

<?xml version="1.0" encoding="UTF-8" standalone="no"?>
<svg width="121px" height="182px" viewBox="0 0 121 182" version="1.1" xmlns="http://www.w3.org/2000/svg" xmlns:xlink="http://www.w3.org/1999/xlink" xmlns:sketch="http://www.bohemiancoding.com/sketch/ns">
    <!-- Generator: Sketch 3.2.2 (9983) - http://www.bohemiancoding.com/sketch -->
    <title>Gandalf</title>
    <desc>Created with Sketch.</desc>
    <defs>
        <filter x="-50%" y="-50%" width="200%" height="200%" filterUnits="objectBoundingBox" id="filter-1">
            <feGaussianBlur stdDeviation="8.42888327" in="SourceGraphic" result="blur"></feGaussianBlur>
        </filter>
    </defs>
    <g id="The-view" stroke="none" stroke-width="1" fill="none" fill-rule="evenodd" sketch:type="MSPage">
        <g id="DAY" sketch:type="MSArtboardGroup" transform="translate(-1313.000000, -648.000000)">
            <g id="Gandalf" sketch:type="MSLayerGroup" transform="translate(1334.000000, 648.000000)">
                <path d="M59.6735606,153.695312 C55.3491462,151.968491 26.4179689,138.789376 26.4179689,138.789376 C26.4179689,138.789376 58.8124334,181.281251 46.7734052,166.488282 C34.734377,151.695313 11.033831,133.230321 8.89062454,131.023437 C-1.1437808,120.6909 49.2489541,146.521927 38.7343764,119.160156 C26.2002694,86.5430253 88.8954642,149.028358 98.273437,174.488281 C105.999997,195.464841 80.6283115,162.062946 59.6735606,153.695312 Z" id="Rectangle-96" fill="#66A57A" sketch:type="MSShapeGroup"></path>
                <g id="Group" sketch:type="MSShapeGroup">
                    <ellipse id="Oval-2167" fill-opacity="0.2" fill="#ED9191" filter="url(#filter-1)" cx="10.86" cy="44.2341772" rx="10.43" ry="11.9945"></ellipse>
                    <path d="M35.5624019,122.919533 C40.6656748,123.039494 46.3614526,125.834132 46.3614526,125.834132 C46.3614526,125.834132 47.2139935,129.284071 43.3645539,130.406086 C39.5151143,131.5281 35.2305321,131.092695 31.9837401,130.024871 C28.736948,128.957047 27.8736387,127.473873 28.1624725,125.406335 C28.4513063,123.338797 30.4591289,122.799572 35.5624019,122.919533 L35.5624019,122.919533 Z" id="Rectangle-1260" fill="#B09978"></path>
                    <path d="M35.5624019,123.666882 C40.6656748,123.78839 46.3614526,126.619089 46.3614526,126.619089 C46.3614526,126.619089 47.2139935,130.113543 43.3645539,131.250035 C39.5151143,132.386527 35.2305321,131.945504 31.9837401,130.863902 C28.736948,129.782299 27.8736387,128.279988 28.1624725,126.185772 C28.4513063,124.091556 30.4591289,123.545373 35.5624019,123.666882 L35.5624019,123.666882 Z" id="Rectangle-1261" fill="#C3A77F"></path>
                    <path d="M48.4624019,120.157204 C53.5656748,120.278713 59.2614526,123.109411 59.2614526,123.109411 C59.2614526,123.109411 60.1139935,126.603866 56.2645539,127.740358 C52.4151143,128.876849 48.1305321,128.435827 44.8837401,127.354224 C41.636948,126.272622 40.7736387,124.77031 41.0624725,122.676094 C41.3513063,120.581878 43.3591289,120.035696 48.4624019,120.157204 L48.4624019,120.157204 Z" id="Rectangle-1262" fill="#B09978"></path>
                    <path d="M48.4624019,119.279785 C53.5656748,119.401294 59.2614526,122.231992 59.2614526,122.231992 C59.2614526,122.231992 60.1139935,125.726447 56.2645539,126.862938 C52.4151143,127.99943 48.1305321,127.558408 44.8837401,126.476805 C41.636948,125.395202 40.7736387,123.892891 41.0624725,121.798675 C41.3513063,119.704459 43.3591289,119.158276 48.4624019,119.279785 L48.4624019,119.279785 Z" id="Rectangle-1263" fill="#C3A77F"></path>
                    <path d="M49.16,89.0868875 L59.48,89.0868875 L59.48,120.074229 C59.48,120.074229 58.0959327,122.240354 55.3933203,122.656508 C52.690708,123.072661 50.88,121.795748 50.88,121.795748 L49.16,89.0868875 Z" id="Rectangle-1264" fill="#999999"></path>
                    <path d="M56.6187854,110.675024 C56.3946121,103.478978 53.3662656,89.0868875 53.3662656,89.0868875 L59.48,89.0868875 L59.48,120.074229 C59.48,120.074229 58.6600562,122.240354 57.0589851,122.656508 C55.4579139,123.072661 54.3852213,121.795748 54.3852213,121.795748 C54.3852213,121.795748 56.734264,114.381932 56.6187854,110.675024 Z" id="Rectangle-1265" fill="#818181"></path>
                    <path d="M36.26,94.2514445 L47.44,91.669166 L46.58,123.517267 C46.58,123.517267 44.3359327,126.544152 41.6333203,126.960305 C38.930708,127.376459 37.12,126.099546 37.12,126.099546 L36.26,94.2514445 Z" id="Rectangle-1266" fill="#999999"></path>
                    <path d="M47.44,91.669166 L46.58,123.517267 C46.58,123.517267 44.3359327,126.544152 41.6333203,126.960305 C38.930708,127.376459 47.44,91.669166 47.44,91.669166 Z" id="Rectangle-1267" fill="#CFCFCF"></path>
                    <g id="Rectangle-1242" transform="translate(10.460000, 48.631191) rotate(-2.000000) translate(-10.460000, -48.631191) translate(3.777001, 40.031176)">
                        <path d="M12.194342,1.64765588 L13.2415897,8.22747035 L4.75114188,16.9759737 L0.347898857,5.63680358 L4.13578518,0.0284891459 L12.194342,1.64765588 Z" id="Rectangle-1238" fill="#DD7373"></path>
                        <path d="M12.194342,1.64765588 L13.2415897,8.22747035 L0.347898857,5.63680358 L4.13578518,0.0284891459 L12.194342,1.64765588 Z" id="Rectangle-1239" fill="#ED8181"></path>
                        <path d="M12.194342,1.64765588 L13.2415897,8.22747035 L11.2546119,8.22257942 L7.15382976,1.64765588 L12.194342,1.64765588 Z" id="Rectangle-1240" fill="#E67A7A"></path>
                    </g>
                    <path d="M5.5634228,119.104553 L5.70106463,104.703611 L8.25640859,91.4981365 L7.6379362,82.5259613 L9.02480181,66.4251041 L6.35061357,59.5241565 L5.93972172,47.8735484 L9.09169614,53.5930337 L11.1598797,48.583326 L11.9261384,53.989079 L15.7267924,48.4023991 L14.7985509,58.3176348 L11.3558252,60.9546657 L10.1451968,82.7090616 L11.0603346,91.1672122 L8.92809659,104.121638 L7.55223228,119.103762 L8.7518019,127.403114 L7.23004291,128.199166 L5.5634228,119.104553 L5.5634228,119.104553 Z" id="Rectangle-1243" fill="#BFA88D"></path>
                    <path d="M9.46099725,73.8319398 C11.1537845,74.7119284 11.6800711,73.6752116 12.7582188,71.5163682 C13.8363666,69.3575247 15.0581028,66.8940647 13.3653155,66.0140761 C11.6725283,65.1340876 9.61750545,64.0657924 7.48809395,68.3296478 C5.35868246,72.5935032 7.76821,72.9519513 9.46099725,73.8319398 L9.46099725,73.8319398 Z" id="Oval-2152" fill="#EFDDB2"></path>
                    <path d="M11.1226367,68.9657937 C12.7981251,66.661749 14.4845313,67.5334362 14.4845313,67.5334362 L21.8944727,73.0132127 L34.8347846,70.4216878 L34.8347846,79.194878 L21.8944727,79.194878 L11.1226367,72.5012961 C11.1226367,72.5012961 9.44714838,71.2698384 11.1226367,68.9657937 Z" id="Rectangle-1244" fill="#999999"></path>
                    <path d="M11.1226367,71.5480722 L21.8944729,76.8925149 L34.8347846,75.1709962 L34.8347846,79.194878 L21.8944727,79.194878 L11.1226367,72.5012961 L11.1226367,71.5480722 Z" id="Rectangle-1268" fill="#919191"></path>
                    <path d="M33.68,61.5425837 C37.4797191,61.5425837 40.56,56.3400191 40.56,49.9223305 C40.56,43.5046419 37.4797191,38.3020774 33.68,38.3020774 C31.4717191,38.3020774 28.5821484,44.0617688 28.5821484,44.0617688 C28.5821484,44.0617688 26.3291622,48.2279717 26.0802539,49.5087625 C25.85847,50.6499809 28.5821484,51.3692266 28.5821484,52.6357403 C28.5821484,59.053429 29.8802809,61.5425837 33.68,61.5425837 Z" id="Oval-2153" fill="#EFDDB2"></path>
                    <path d="M29.2997316,51.7031765 C29.2997316,51.7031765 26.2156149,48.8122444 26.0802539,49.5087625 C25.9759515,50.0454643 28.5821484,52.6357403 28.5821484,52.6357403 C28.5821484,52.6357403 29.2997316,51.7031765 29.2997316,51.7031765 Z" id="Oval-2160" fill="#DDCCA1"></path>
                    <path d="M28.4746485,57.7313693 C29.7794074,53.1796093 34.8360609,53.6179457 34.2107814,49.6298068 C33.585502,45.6416679 26.950612,39.351128 28.4746484,39.351128 C33.5439453,39.351128 44,43.4666343 44,43.4666343 C44,43.4666343 52.843459,39.7718001 55.7779697,43.4666343 C58.7124805,47.1614686 57.6088291,61.0550441 57.6088291,61.0550441 L44,63.2641027 C44,63.2641027 36.3852072,75.371815 34.2107818,74.1446407 C32.0363563,72.9174663 27.1698895,62.2831293 28.4746485,57.7313693 Z" id="Rectangle-1269" fill="#E5E5E5"></path>
                    <path d="M38.3554098,49.1463824 C47.185228,53.3471926 56.2781698,51.1528496 57.4678506,46.6831887 C58.6575313,42.2135278 54.8065138,35.6750238 45.1210653,31.0671451 C35.4356169,26.4592664 26.1195038,25.9280995 24.3129443,29.8807506 C22.5063848,33.8334017 28.6699614,44.5385036 38.3554098,49.1463824 L38.3554098,49.1463824 Z" id="Oval-2161" fill="#E6E6E6"></path>
                    <path d="M36.8270718,46.4548876 C46.5125202,51.0627663 56.7204962,49.6425873 58.5270557,45.6899362 C60.3336152,41.737285 53.9465138,34.7976045 44.2610653,30.1897258 C34.5756169,25.5818471 25.2595038,25.0506801 23.4529443,29.0033312 C21.6463848,32.9559824 27.1416234,41.8470089 36.8270718,46.4548876 L36.8270718,46.4548876 Z" id="Oval-2162" fill="#A0A0A0"></path>
                    <path d="M48.4513969,40.8964138 C46.7917108,44.9040428 32.1300095,44.2202473 36.8270718,46.4548876 C46.5125202,51.0627663 56.7204962,49.6425873 58.5270557,45.6899362 C60.3336152,41.737285 53.9465138,34.7976045 44.2610653,30.1897258 C39.2726793,27.8164874 50.214021,36.6402215 48.4513969,40.8964138 L48.4513969,40.8964138 Z" id="Oval-2163" fill="#9A9A9A"></path>
                    <path d="M54.11584,42.3316134 C56.2316804,40.6632274 50.8080277,34.6078738 50.8080277,34.6078738 C50.8080277,34.6078738 46.9583465,31.6516685 44.1807102,30.3302005 C37.7237446,27.2582813 34.9530026,26.90417 33.7486295,29.5392708 C32.5442565,32.1743715 33.9646674,35.4829327 40.421633,38.5548518 C45.8148133,41.1206722 51.9999996,43.9999995 54.11584,42.3316134 Z" id="Oval-2164" fill="#8E8E8E"></path>
                    <path d="M58.7180079,3.93908497 C72.6486007,0.77059497 72.4410542,0.50993946 72.4410542,0.50993946 C72.4410542,0.50993946 68.8294215,5.12636791 58.9699611,14.4570972 C53.2043315,19.9135347 51.3878747,37.0273147 51.3878747,37.0273147 C51.3878747,37.0273147 42.9527892,38.3117146 39.8433589,36.2844629 C36.7339285,34.2572113 32.5941744,29.5060557 34.9504295,26.3106129 C37.3066846,23.11517 44.7874151,7.10757497 58.7180079,3.93908497 L58.7180079,3.93908497 Z" id="Rectangle-1270" fill="#989898"></path>
                    <path d="M57.4190425,10.8288661 C65.0000005,3.28771724 70.1410542,3.28771724 70.1410542,3.28771724 C70.1410542,3.28771724 60.4132843,10.0729849 58.2812439,12.4849166 C52.0000005,19.590753 50.5278747,35.0828702 50.5278747,35.0828702 C50.5278747,35.0828702 47.9629059,36.1424256 45.2054071,35.8392436 C43.2241094,35.6214035 41.1434162,34.2431709 39.8433589,33.3955741 C39.1274544,32.9288267 43.9997855,33.7974115 47.1766839,29.450588 C50.6986806,24.6315802 53.0199557,15.2048524 57.4190425,10.8288661 Z" id="Rectangle-1271" fill="#8E8E8E"></path>
                    <path d="M33.1408203,91.5795676 C36.0183758,76.5220936 32.8497619,64.0419706 34.2331519,60.1474688 C37.1754637,51.8643105 54.7933668,49.8760983 54.7933668,49.8760983 C54.7933668,49.8760983 54.4778215,47.0814716 60.5202597,64.0920661 C66.5626979,81.1026606 86.7267457,106.012942 86.7267457,106.012942 C86.7267457,106.012942 70.868816,101.551811 63.8561207,106.012942 C56.8434254,110.474072 56.7924602,123.646997 47.8814527,125.178527 C27.9897535,128.597302 22.8599879,119.660177 22.8599879,119.660177 C22.8599879,119.660177 30.2632648,106.637042 33.1408203,91.5795676 Z" id="Rectangle-1272" fill="#A0A0A0"></path>
                    <path d="M33.9050781,90.6249653 C36.3695743,76.4574142 34.5022071,62.2898641 34.5022071,62.2898641 C34.5022071,62.2898641 42.2967969,83.19873 37.4441797,93.7075873 C32.5915625,104.216445 30.3181911,109.150139 30.4332145,117.12723 C30.5013155,121.850159 32.3399999,121.545103 33.9050781,124.090257 C36.1593828,127.756241 23.8084766,120.506041 23.8084766,120.506041 C23.8084766,120.506041 31.440582,104.792516 33.9050781,90.6249653 Z" id="Rectangle-1273" fill="#AEAEAE"></path>
                    <path d="M66.1475543,88.6271814 C62.9918545,83.5019145 56.0755045,79.1299311 50.6875577,73.7354913 C44.3957511,67.4361026 40.0080926,59.5799803 40.8052344,57.3446999 C40.9789397,56.8576094 44.4394197,58.3454671 47.9850586,57.3446999 C51.5306975,56.3439326 53.8824414,51.9910113 53.8824414,51.9910113 C53.8824414,51.9910113 55.61,52.9080901 60.5178455,67.3977993 C65.425691,81.8875085 84.4831946,104.962679 84.4831946,104.962679 C84.4831946,104.962679 73.4614886,100.328208 66.1475535,104.962679 C62.3604942,107.362348 73.4929972,100.557136 66.1475543,88.6271814 Z" id="Rectangle-1274" fill="#919191"></path>
                </g>
            </g>
        </g>
    </g>
</svg>

<svg width="121" height="182" viewBox="0 0 121 182" xmlns="http://www.w3.org/2000/svg"><title>Gandalf</title><defs><filter x="-50%" y="-50%" width="200%" height="200%" filterUnits="objectBoundingBox" id="a"><feGaussianBlur stdDeviation="8.429" in="SourceGraphic" result="blur"/></filter></defs><g fill="none" fill-rule="evenodd"><path d="M80.674 153.695c-4.325-1.727-33.256-14.906-33.256-14.906s32.394 42.49 20.355 27.69c-12.04-14.8-35.74-33.26-37.882-35.47-10.03-10.33 40.36 15.5 29.85-11.87-12.53-32.62 50.16 29.86 59.54 55.32 7.73 20.97-17.64-12.43-38.6-20.8z" fill="#66A57A"/><g transform="translate(21)"><ellipse fill-opacity=".2" fill="#ED9191" filter="url(#a)" cx="10.86" cy="44.234" rx="10.43" ry="11.995"/><path d="M35.562 122.92c5.104.12 10.8 2.914 10.8 2.914s.852 3.45-2.997 4.572c-3.85 1.122-8.134.687-11.38-.38-3.248-1.07-4.11-2.552-3.823-4.62.29-2.067 2.297-2.606 7.4-2.486z" fill="#B09978"/><path d="M35.562 123.667c5.104.12 10.8 2.952 10.8 2.952s.852 3.49-2.997 4.63c-3.85 1.13-8.134.69-11.38-.39-3.248-1.08-4.11-2.59-3.823-4.68.29-2.1 2.297-2.64 7.4-2.52z" fill="#C3A77F"/><path d="M48.462 120.157c5.104.122 10.8 2.952 10.8 2.952s.852 3.49-2.997 4.63c-3.85 1.13-8.134.69-11.38-.39-3.248-1.08-4.11-2.59-3.823-4.68.29-2.1 2.297-2.64 7.4-2.52z" fill="#B09978"/><path d="M48.462 119.28c5.104.12 10.8 2.952 10.8 2.952s.852 3.494-2.997 4.63c-3.85 1.137-8.134.696-11.38-.385-3.248-1.082-4.11-2.584-3.823-4.678.29-2.1 2.297-2.65 7.4-2.52z" fill="#C3A77F"/><path d="M49.16 89.087h10.32v30.987s-1.384 2.166-4.087 2.583c-2.702.416-4.513-.86-4.513-.86l-1.72-32.71z" fill="#999"/><path d="M56.62 110.675c-.225-7.196-3.254-21.588-3.254-21.588h6.114v30.987s-.82 2.166-2.42 2.583c-1.602.416-2.675-.86-2.675-.86s2.35-7.415 2.234-11.122z" fill="#818181"/><path d="M36.26 94.25l11.18-2.58-.86 31.847s-2.244 3.027-4.947 3.443c-2.702.416-4.513-.86-4.513-.86l-.86-31.85z" fill="#999"/><path d="M47.44 91.67l-.86 31.847s-2.244 3.027-4.947 3.443c-2.702.416 5.807-35.29 5.807-35.29z" fill="#CFCFCF"/><path d="M15.722 41.493l1.276 6.537-8.175 9.037-4.796-11.174 3.588-5.735 8.107 1.335z" fill="#DD7373"/><path d="M15.722 41.493l1.276 6.537-12.97-2.137 3.587-5.735 8.107 1.335z" fill="#ED8181"/><path d="M15.722 41.493l1.276 6.537-1.985.064-4.327-6.424 5.036-.177z" fill="#E67A7A"/><path d="M5.563 119.105l.138-14.4 2.56-13.207-.61-8.972 1.39-16.1-2.67-6.902-.41-11.65 3.15 5.72 2.07-5.01.77 5.405 3.8-5.59-.92 9.91-3.44 2.63-1.21 21.75.92 8.45-2.14 12.96-1.38 14.98 1.2 8.3-1.52.79-1.67-9.09z" fill="#BFA88D"/><path d="M9.46 73.832c1.694.88 2.22-.157 3.298-2.316 1.078-2.158 2.3-4.622.607-5.502-1.692-.88-3.747-1.948-5.877 2.316-2.13 4.264.28 4.622 1.973 5.502z" fill="#EFDDB2"/><path d="M11.123 68.966c1.675-2.304 3.362-1.433 3.362-1.433l7.41 5.48 12.94-2.59v8.772h-12.94L11.122 72.5s-1.676-1.23 0-3.534z" fill="#999"/><path d="M11.123 71.548l10.77 5.345 12.942-1.722v4.03h-12.94l-10.773-6.7v-.95z" fill="#919191"/><path d="M33.68 61.543c3.8 0 6.88-5.203 6.88-11.62 0-6.418-3.08-11.62-6.88-11.62-2.208 0-5.098 5.76-5.098 5.76s-2.253 4.165-2.502 5.446c-.222 1.14 2.502 1.86 2.502 3.12 0 6.41 1.298 8.9 5.098 8.9z" fill="#EFDDB2"/><path d="M29.3 51.703s-3.084-2.89-3.22-2.194c-.104.53 2.502 3.12 2.502 3.12l.718-.94z" fill="#DDCCA1"/><path d="M28.475 57.73c1.304-4.55 6.36-4.112 5.736-8.1-.62-3.988-7.26-10.28-5.73-10.28 5.07 0 15.53 4.117 15.53 4.117s8.85-3.695 11.78 0c2.94 3.694 1.83 17.588 1.83 17.588L44 63.265s-7.615 12.107-9.79 10.88c-2.174-1.228-7.04-11.862-5.735-16.414z" fill="#E5E5E5"/><path d="M38.355 49.146c8.83 4.2 17.923 2.007 19.113-2.463 1.19-4.47-2.66-11.008-12.347-15.616-9.68-4.608-19-5.14-20.8-1.186-1.8 3.96 4.36 14.66 14.04 19.27z" fill="#E6E6E6"/><path d="M36.827 46.455c9.686 4.608 19.893 3.188 21.7-.765 1.807-3.953-4.58-10.892-14.266-15.5-9.68-4.608-19-5.14-20.8-1.187-1.8 3.953 3.69 12.844 13.38 17.452z" fill="#A0A0A0"/><path d="M48.45 40.896c-1.658 4.008-16.32 3.324-11.623 5.56 9.686 4.607 19.893 3.187 21.7-.766 1.807-3.953-4.58-10.892-14.266-15.5-4.98-2.374 5.96 6.45 4.19 10.706z" fill="#9A9A9A"/><path d="M54.116 42.332c2.116-1.67-3.308-7.724-3.308-7.724s-3.85-2.956-6.627-4.278c-6.45-3.072-9.22-3.426-10.43-.79-1.2 2.634.22 5.943 6.68 9.015C45.82 41.12 52 44 54.12 42.332z" fill="#8E8E8E"/><path d="M58.718 3.94C72.648.77 72.44.51 72.44.51s-3.61 4.616-13.47 13.947c-5.766 5.457-7.582 22.57-7.582 22.57s-8.435 1.285-11.545-.743c-3.11-2.027-7.25-6.778-4.893-9.973 2.357-3.19 9.837-19.2 23.768-22.37z" fill="#989898"/><path d="M57.42 10.83C65 3.287 70.14 3.287 70.14 3.287s-9.727 6.785-11.86 9.197c-6.28 7.106-7.75 22.6-7.75 22.6s-2.565 1.06-5.323.755c-1.98-.22-4.062-1.6-5.362-2.45-.716-.47 4.157.4 7.334-3.95 3.52-4.82 5.84-14.25 10.24-18.62z" fill="#8E8E8E"/><path d="M33.14 91.58c2.878-15.058-.29-27.538 1.093-31.433 2.942-8.283 20.56-10.27 20.56-10.27s-.315-2.796 5.727 14.215c6.043 17.01 26.207 41.92 26.207 41.92s-15.858-4.46-22.87 0c-7.014 4.462-7.065 17.635-15.976 19.167-19.89 3.41-25.02-5.52-25.02-5.52s7.41-13.03 10.28-28.08z" fill="#A0A0A0"/><path d="M33.905 90.625c2.465-14.168.597-28.335.597-28.335s7.795 20.91 2.942 31.418c-4.852 10.508-7.126 15.442-7.01 23.42.067 4.722 1.906 4.417 3.47 6.962 2.255 3.666-10.096-3.584-10.096-3.584s7.633-15.713 10.097-29.88z" fill="#AEAEAE"/><path d="M66.148 88.627c-3.156-5.125-10.072-9.497-15.46-14.892-6.292-6.3-10.68-14.155-9.883-16.39.174-.487 3.634 1 7.18 0s5.897-5.354 5.897-5.354 1.728.92 6.636 15.41 23.965 37.57 23.965 37.57-11.022-4.63-18.335 0c-3.788 2.4 7.345-4.4 0-16.33z" fill="#919191"/></g></g></svg>
